images/50368387.svg

<?xml version="1.0" encoding="UTF-8"?>
<svg xmlns="http://www.w3.org/2000/svg" xmlns:xlink="http://www.w3.org/1999/xlink" width="300pt" height="300pt" viewBox="0 0 300 300" version="1.1">
<defs>
<g>
<symbol overflow="visible" id="glyph0-0">
<path style="stroke:none;" d="M 0.546875 1.9375 L 0.546875 -7.75 L 6.046875 -7.75 L 6.046875 1.9375 Z M 1.171875 1.328125 L 5.4375 1.328125 L 5.4375 -7.140625 L 1.171875 -7.140625 Z M 1.171875 1.328125 "/>
</symbol>
<symbol overflow="visible" id="glyph0-1">
<path style="stroke:none;" d="M 4.328125 -7.28125 C 3.546875 -7.28125 2.921875 -6.984375 2.453125 -6.390625 C 1.992188 -5.804688 1.765625 -5.007812 1.765625 -4 C 1.765625 -2.988281 1.992188 -2.1875 2.453125 -1.59375 C 2.921875 -1.007812 3.546875 -0.71875 4.328125 -0.71875 C 5.117188 -0.71875 5.742188 -1.007812 6.203125 -1.59375 C 6.660156 -2.1875 6.890625 -2.988281 6.890625 -4 C 6.890625 -5.007812 6.660156 -5.804688 6.203125 -6.390625 C 5.742188 -6.984375 5.117188 -7.28125 4.328125 -7.28125 Z M 4.328125 -8.171875 C 5.453125 -8.171875 6.351562 -7.789062 7.03125 -7.03125 C 7.707031 -6.28125 8.046875 -5.269531 8.046875 -4 C 8.046875 -2.738281 7.707031 -1.726562 7.03125 -0.96875 C 6.351562 -0.21875 5.453125 0.15625 4.328125 0.15625 C 3.203125 0.15625 2.300781 -0.21875 1.625 -0.96875 C 0.957031 -1.71875 0.625 -2.726562 0.625 -4 C 0.625 -5.269531 0.957031 -6.28125 1.625 -7.03125 C 2.300781 -7.789062 3.203125 -8.171875 4.328125 -8.171875 Z M 4.328125 -8.171875 "/>
</symbol>
<symbol overflow="visible" id="glyph0-2">
<path style="stroke:none;" d="M 1.078125 -8.015625 L 2.546875 -8.015625 L 6.09375 -1.3125 L 6.09375 -8.015625 L 7.15625 -8.015625 L 7.15625 0 L 5.6875 0 L 2.125 -6.703125 L 2.125 0 L 1.078125 0 Z M 1.078125 -8.015625 "/>
</symbol>
<symbol overflow="visible" id="glyph0-3">
<path style="stroke:none;" d="M 1.078125 -8.015625 L 2.171875 -8.015625 L 2.171875 -4.734375 L 6.109375 -4.734375 L 6.109375 -8.015625 L 7.1875 -8.015625 L 7.1875 0 L 6.109375 0 L 6.109375 -3.8125 L 2.171875 -3.8125 L 2.171875 0 L 1.078125 0 Z M 1.078125 -8.015625 "/>
</symbol>
</g>
</defs>
<g id="surface10001">
<rect x="0" y="0" width="300" height="300" style="fill:rgb(100%,100%,100%);fill-opacity:1;stroke:none;"/>
<path style="fill:none;stroke-width:1.2;stroke-linecap:butt;stroke-linejoin:miter;stroke:rgb(100%,0%,0%);stroke-opacity:1;stroke-miterlimit:10;" d="M 160.597656 149.117188 L 173.617188 153.835938 "/>
<path style="fill:none;stroke-width:1.2;stroke-linecap:butt;stroke-linejoin:miter;stroke:rgb(0%,0%,0%);stroke-opacity:1;stroke-miterlimit:10;" d="M 173.617188 153.835938 L 186.636719 158.558594 "/>
<path style="fill:none;stroke-width:1.2;stroke-linecap:butt;stroke-linejoin:miter;stroke:rgb(0%,0%,0%);stroke-opacity:1;stroke-miterlimit:10;" d="M 139.402344 166.945312 L 150 158.03125 "/>
<path style="fill:none;stroke-width:1.2;stroke-linecap:butt;stroke-linejoin:miter;stroke:rgb(100%,0%,0%);stroke-opacity:1;stroke-miterlimit:10;" d="M 150 158.03125 L 160.597656 149.117188 "/>
<path style=" stroke:none;fill-rule:nonzero;fill:rgb(100%,100%,100%);fill-opacity:1;" d="M 156.597656 142.617188 L 165.597656 142.617188 L 165.597656 155.617188 L 156.597656 155.617188 Z M 156.597656 142.617188 "/>
<g style="fill:rgb(100%,0%,0%);fill-opacity:1;">
  <use xlink:href="#glyph0-1" x="156.597656" y="152.518555"/>
</g>
<path style="fill:none;stroke-width:1.2;stroke-linecap:butt;stroke-linejoin:miter;stroke:rgb(0%,0%,0%);stroke-opacity:1;stroke-miterlimit:10;" d="M 186.636719 158.558594 L 191.476562 185.828125 "/>
<path style="fill:none;stroke-width:1.2;stroke-linecap:butt;stroke-linejoin:miter;stroke:rgb(0%,0%,0%);stroke-opacity:1;stroke-miterlimit:10;" d="M 193.535156 160.144531 L 197.410156 181.960938 "/>
<path style="fill:none;stroke-width:1.2;stroke-linecap:butt;stroke-linejoin:miter;stroke:rgb(0%,0%,0%);stroke-opacity:1;stroke-miterlimit:10;" d="M 207.832031 140.730469 L 186.636719 158.558594 "/>
<path style="fill:none;stroke-width:1.2;stroke-linecap:butt;stroke-linejoin:miter;stroke:rgb(0%,0%,0%);stroke-opacity:1;stroke-miterlimit:10;" d="M 191.476562 185.828125 L 217.515625 195.269531 "/>
<path style="fill:none;stroke-width:1.2;stroke-linecap:butt;stroke-linejoin:miter;stroke:rgb(0%,0%,0%);stroke-opacity:1;stroke-miterlimit:10;" d="M 191.476562 185.828125 L 170.28125 203.65625 "/>
<path style="fill:none;stroke-width:1.2;stroke-linecap:butt;stroke-linejoin:miter;stroke:rgb(0%,0%,0%);stroke-opacity:1;stroke-miterlimit:10;" d="M 217.515625 195.269531 L 238.710938 177.441406 "/>
<path style="fill:none;stroke-width:1.2;stroke-linecap:butt;stroke-linejoin:miter;stroke:rgb(0%,0%,0%);stroke-opacity:1;stroke-miterlimit:10;" d="M 215.441406 188.5 L 232.398438 174.238281 "/>
<path style="fill:none;stroke-width:1.2;stroke-linecap:butt;stroke-linejoin:miter;stroke:rgb(0%,0%,0%);stroke-opacity:1;stroke-miterlimit:10;" d="M 238.710938 177.441406 L 233.871094 150.171875 "/>
<path style="fill:none;stroke-width:1.2;stroke-linecap:butt;stroke-linejoin:miter;stroke:rgb(0%,0%,0%);stroke-opacity:1;stroke-miterlimit:10;" d="M 238.710938 177.441406 L 264.75 186.882812 "/>
<path style="fill:none;stroke-width:1.2;stroke-linecap:butt;stroke-linejoin:miter;stroke:rgb(0%,0%,0%);stroke-opacity:1;stroke-miterlimit:10;" d="M 233.871094 150.171875 L 207.832031 140.730469 "/>
<path style="fill:none;stroke-width:1.2;stroke-linecap:butt;stroke-linejoin:miter;stroke:rgb(0%,0%,0%);stroke-opacity:1;stroke-miterlimit:10;" d="M 229.042969 155.351562 L 208.214844 147.800781 "/>
<path style="fill:none;stroke-width:1.2;stroke-linecap:butt;stroke-linejoin:miter;stroke:rgb(0%,0%,0%);stroke-opacity:1;stroke-miterlimit:10;" d="M 207.832031 140.730469 L 205.410156 127.09375 "/>
<path style="fill:none;stroke-width:1.2;stroke-linecap:butt;stroke-linejoin:miter;stroke:rgb(0%,0%,100%);stroke-opacity:1;stroke-miterlimit:10;" d="M 205.410156 127.09375 L 202.988281 113.457031 "/>
<path style="fill:none;stroke-width:1.2;stroke-linecap:butt;stroke-linejoin:miter;stroke:rgb(0%,0%,100%);stroke-opacity:1;stroke-miterlimit:10;" d="M 202.988281 113.457031 L 190.535156 107.402344 "/>
<path style="fill:none;stroke-width:1.2;stroke-linecap:butt;stroke-linejoin:miter;stroke:rgb(0%,0%,0%);stroke-opacity:1;stroke-miterlimit:10;" d="M 190.535156 107.402344 L 178.082031 101.347656 "/>
<path style="fill:none;stroke-width:1.2;stroke-linecap:butt;stroke-linejoin:miter;stroke:rgb(0%,0%,0%);stroke-opacity:1;stroke-miterlimit:10;" d="M 222.207031 93.511719 L 212.597656 103.484375 "/>
<path style="fill:none;stroke-width:1.2;stroke-linecap:butt;stroke-linejoin:miter;stroke:rgb(0%,0%,100%);stroke-opacity:1;stroke-miterlimit:10;" d="M 212.597656 103.484375 L 202.988281 113.457031 "/>
<path style=" stroke:none;fill-rule:nonzero;fill:rgb(100%,100%,100%);fill-opacity:1;" d="M 198.988281 106.957031 L 206.988281 106.957031 L 206.988281 119.957031 L 198.988281 119.957031 Z M 198.988281 106.957031 "/>
<g style="fill:rgb(0%,0%,100%);fill-opacity:1;">
  <use xlink:href="#glyph0-2" x="198.988281" y="116.858398"/>
</g>
<path style="fill:none;stroke-width:1.2;stroke-linecap:butt;stroke-linejoin:miter;stroke:rgb(0%,0%,0%);stroke-opacity:1;stroke-miterlimit:10;" d="M 178.082031 101.347656 L 165.863281 107.863281 "/>
<path style="fill:none;stroke-width:1.2;stroke-linecap:butt;stroke-linejoin:miter;stroke:rgb(100%,0%,0%);stroke-opacity:1;stroke-miterlimit:10;" d="M 165.863281 107.863281 L 153.640625 114.378906 "/>
<path style="fill:none;stroke-width:1.2;stroke-linecap:butt;stroke-linejoin:miter;stroke:rgb(0%,0%,0%);stroke-opacity:1;stroke-miterlimit:10;" d="M 178.082031 101.347656 L 181.902344 73.914062 "/>
<path style="fill:none;stroke-width:1.2;stroke-linecap:butt;stroke-linejoin:miter;stroke:rgb(0%,0%,0%);stroke-opacity:1;stroke-miterlimit:10;" d="M 184.917969 99.503906 L 187.976562 77.558594 "/>
<path style=" stroke:none;fill-rule:nonzero;fill:rgb(100%,100%,100%);fill-opacity:1;" d="M 136.640625 107.878906 L 153.640625 107.878906 L 153.640625 120.878906 L 136.640625 120.878906 Z M 136.640625 107.878906 "/>
<g style="fill:rgb(100%,0%,0%);fill-opacity:1;">
  <use xlink:href="#glyph0-3" x="136.640625" y="117.780273"/>
  <use xlink:href="#glyph0-1" x="144.665039" y="117.780273"/>
</g>
<path style="fill:none;stroke-width:1.2;stroke-linecap:butt;stroke-linejoin:miter;stroke:rgb(0%,0%,0%);stroke-opacity:1;stroke-miterlimit:10;" d="M 181.902344 73.914062 L 195.539062 71.492188 "/>
<path style="fill:none;stroke-width:1.2;stroke-linecap:butt;stroke-linejoin:miter;stroke:rgb(0%,0%,100%);stroke-opacity:1;stroke-miterlimit:10;" d="M 195.539062 71.492188 L 209.171875 69.074219 "/>
<path style="fill:none;stroke-width:1.2;stroke-linecap:butt;stroke-linejoin:miter;stroke:rgb(0%,0%,100%);stroke-opacity:1;stroke-miterlimit:10;" d="M 209.171875 69.074219 L 215.691406 81.292969 "/>
<path style="fill:none;stroke-width:1.2;stroke-linecap:butt;stroke-linejoin:miter;stroke:rgb(0%,0%,0%);stroke-opacity:1;stroke-miterlimit:10;" d="M 215.691406 81.292969 L 222.207031 93.511719 "/>
<path style=" stroke:none;fill-rule:nonzero;fill:rgb(100%,100%,100%);fill-opacity:1;" d="M 201.171875 62.574219 L 218.171875 62.574219 L 218.171875 75.574219 L 201.171875 75.574219 Z M 201.171875 62.574219 "/>
<g style="fill:rgb(0%,0%,100%);fill-opacity:1;">
  <use xlink:href="#glyph0-2" x="201.171875" y="72.475586"/>
  <use xlink:href="#glyph0-3" x="209.155273" y="72.475586"/>
</g>
<path style="fill:none;stroke-width:1.2;stroke-linecap:butt;stroke-linejoin:miter;stroke:rgb(0%,0%,0%);stroke-opacity:1;stroke-miterlimit:10;" d="M 221.757812 96.738281 L 235.472656 98.648438 "/>
<path style="fill:none;stroke-width:1.2;stroke-linecap:butt;stroke-linejoin:miter;stroke:rgb(100%,0%,0%);stroke-opacity:1;stroke-miterlimit:10;" d="M 235.472656 98.648438 L 249.1875 100.5625 "/>
<path style="fill:none;stroke-width:1.2;stroke-linecap:butt;stroke-linejoin:miter;stroke:rgb(0%,0%,0%);stroke-opacity:1;stroke-miterlimit:10;" d="M 222.65625 90.285156 L 236.371094 92.195312 "/>
<path style="fill:none;stroke-width:1.2;stroke-linecap:butt;stroke-linejoin:miter;stroke:rgb(100%,0%,0%);stroke-opacity:1;stroke-miterlimit:10;" d="M 236.371094 92.195312 L 250.085938 94.105469 "/>
<path style=" stroke:none;fill-rule:nonzero;fill:rgb(100%,100%,100%);fill-opacity:1;" d="M 245.636719 90.832031 L 254.636719 90.832031 L 254.636719 103.832031 L 245.636719 103.832031 Z M 245.636719 90.832031 "/>
<g style="fill:rgb(100%,0%,0%);fill-opacity:1;">
  <use xlink:href="#glyph0-1" x="245.636719" y="100.733398"/>
</g>
<path style="fill:none;stroke-width:1.2;stroke-linecap:butt;stroke-linejoin:miter;stroke:rgb(0%,0%,0%);stroke-opacity:1;stroke-miterlimit:10;" d="M 167.074219 204.226562 L 169.496094 217.863281 "/>
<path style="fill:none;stroke-width:1.2;stroke-linecap:butt;stroke-linejoin:miter;stroke:rgb(100%,0%,0%);stroke-opacity:1;stroke-miterlimit:10;" d="M 169.496094 217.863281 L 171.917969 231.496094 "/>
<path style="fill:none;stroke-width:1.2;stroke-linecap:butt;stroke-linejoin:miter;stroke:rgb(0%,0%,0%);stroke-opacity:1;stroke-miterlimit:10;" d="M 173.492188 203.085938 L 175.910156 216.722656 "/>
<path style="fill:none;stroke-width:1.2;stroke-linecap:butt;stroke-linejoin:miter;stroke:rgb(100%,0%,0%);stroke-opacity:1;stroke-miterlimit:10;" d="M 175.910156 216.722656 L 178.332031 230.359375 "/>
<path style="fill:none;stroke-width:1.2;stroke-linecap:butt;stroke-linejoin:miter;stroke:rgb(0%,0%,0%);stroke-opacity:1;stroke-miterlimit:10;" d="M 170.28125 203.65625 L 144.246094 194.214844 "/>
<path style=" stroke:none;fill-rule:nonzero;fill:rgb(100%,100%,100%);fill-opacity:1;" d="M 171.125 224.425781 L 180.125 224.425781 L 180.125 237.425781 L 171.125 237.425781 Z M 171.125 224.425781 "/>
<g style="fill:rgb(100%,0%,0%);fill-opacity:1;">
  <use xlink:href="#glyph0-1" x="171.125" y="234.327148"/>
</g>
<path style="fill:none;stroke-width:1.2;stroke-linecap:butt;stroke-linejoin:miter;stroke:rgb(0%,0%,0%);stroke-opacity:1;stroke-miterlimit:10;" d="M 144.246094 194.214844 L 133.644531 203.128906 "/>
<path style="fill:none;stroke-width:1.2;stroke-linecap:butt;stroke-linejoin:miter;stroke:rgb(100%,0%,0%);stroke-opacity:1;stroke-miterlimit:10;" d="M 133.644531 203.128906 L 123.046875 212.042969 "/>
<path style="fill:none;stroke-width:1.2;stroke-linecap:butt;stroke-linejoin:miter;stroke:rgb(0%,0%,0%);stroke-opacity:1;stroke-miterlimit:10;" d="M 144.246094 194.214844 L 139.402344 166.945312 "/>
<path style="fill:none;stroke-width:1.2;stroke-linecap:butt;stroke-linejoin:miter;stroke:rgb(0%,0%,0%);stroke-opacity:1;stroke-miterlimit:10;" d="M 150.175781 190.347656 L 146.304688 168.53125 "/>
<path style=" stroke:none;fill-rule:nonzero;fill:rgb(100%,100%,100%);fill-opacity:1;" d="M 106.046875 205.542969 L 123.046875 205.542969 L 123.046875 218.542969 L 106.046875 218.542969 Z M 106.046875 205.542969 "/>
<g style="fill:rgb(100%,0%,0%);fill-opacity:1;">
  <use xlink:href="#glyph0-3" x="106.046875" y="215.444336"/>
  <use xlink:href="#glyph0-1" x="114.071289" y="215.444336"/>
</g>
<path style="fill:none;stroke-width:1.2;stroke-linecap:butt;stroke-linejoin:miter;stroke:rgb(0%,0%,0%);stroke-opacity:1;stroke-miterlimit:10;" d="M 139.402344 166.945312 L 113.363281 157.503906 "/>
<path style="fill:none;stroke-width:1.2;stroke-linecap:butt;stroke-linejoin:miter;stroke:rgb(0%,0%,0%);stroke-opacity:1;stroke-miterlimit:10;" d="M 113.363281 157.503906 L 108.523438 130.230469 "/>
<path style="fill:none;stroke-width:1.2;stroke-linecap:butt;stroke-linejoin:miter;stroke:rgb(0%,0%,0%);stroke-opacity:1;stroke-miterlimit:10;" d="M 106.464844 155.914062 L 102.589844 134.097656 "/>
<path style="fill:none;stroke-width:1.2;stroke-linecap:butt;stroke-linejoin:miter;stroke:rgb(0%,0%,0%);stroke-opacity:1;stroke-miterlimit:10;" d="M 92.167969 175.332031 L 113.363281 157.503906 "/>
<path style="fill:none;stroke-width:1.2;stroke-linecap:butt;stroke-linejoin:miter;stroke:rgb(0%,0%,0%);stroke-opacity:1;stroke-miterlimit:10;" d="M 108.523438 130.230469 L 82.484375 120.789062 "/>
<path style="fill:none;stroke-width:1.2;stroke-linecap:butt;stroke-linejoin:miter;stroke:rgb(0%,0%,0%);stroke-opacity:1;stroke-miterlimit:10;" d="M 82.484375 120.789062 L 80.0625 107.15625 "/>
<path style="fill:none;stroke-width:1.2;stroke-linecap:butt;stroke-linejoin:miter;stroke:rgb(100%,0%,0%);stroke-opacity:1;stroke-miterlimit:10;" d="M 80.0625 107.15625 L 77.640625 93.519531 "/>
<path style="fill:none;stroke-width:1.2;stroke-linecap:butt;stroke-linejoin:miter;stroke:rgb(0%,0%,0%);stroke-opacity:1;stroke-miterlimit:10;" d="M 82.484375 120.789062 L 61.289062 138.621094 "/>
<path style="fill:none;stroke-width:1.2;stroke-linecap:butt;stroke-linejoin:miter;stroke:rgb(0%,0%,0%);stroke-opacity:1;stroke-miterlimit:10;" d="M 84.558594 127.5625 L 67.601562 141.824219 "/>
<path style=" stroke:none;fill-rule:nonzero;fill:rgb(100%,100%,100%);fill-opacity:1;" d="M 69.640625 87.019531 L 86.640625 87.019531 L 86.640625 100.019531 L 69.640625 100.019531 Z M 69.640625 87.019531 "/>
<g style="fill:rgb(100%,0%,0%);fill-opacity:1;">
  <use xlink:href="#glyph0-3" x="69.640625" y="96.920898"/>
  <use xlink:href="#glyph0-1" x="77.665039" y="96.920898"/>
</g>
<path style="fill:none;stroke-width:1.2;stroke-linecap:butt;stroke-linejoin:miter;stroke:rgb(0%,0%,0%);stroke-opacity:1;stroke-miterlimit:10;" d="M 61.289062 138.621094 L 48.269531 133.898438 "/>
<path style="fill:none;stroke-width:1.2;stroke-linecap:butt;stroke-linejoin:miter;stroke:rgb(100%,0%,0%);stroke-opacity:1;stroke-miterlimit:10;" d="M 48.269531 133.898438 L 35.25 129.175781 "/>
<path style="fill:none;stroke-width:1.2;stroke-linecap:butt;stroke-linejoin:miter;stroke:rgb(0%,0%,0%);stroke-opacity:1;stroke-miterlimit:10;" d="M 61.289062 138.621094 L 66.128906 165.890625 "/>
<path style=" stroke:none;fill-rule:nonzero;fill:rgb(100%,100%,100%);fill-opacity:1;" d="M 18.25 122.675781 L 35.25 122.675781 L 35.25 135.675781 L 18.25 135.675781 Z M 18.25 122.675781 "/>
<g style="fill:rgb(100%,0%,0%);fill-opacity:1;">
  <use xlink:href="#glyph0-3" x="18.25" y="132.577148"/>
  <use xlink:href="#glyph0-1" x="26.274414" y="132.577148"/>
</g>
<path style="fill:none;stroke-width:1.2;stroke-linecap:butt;stroke-linejoin:miter;stroke:rgb(0%,0%,0%);stroke-opacity:1;stroke-miterlimit:10;" d="M 66.128906 165.890625 L 92.167969 175.332031 "/>
<path style="fill:none;stroke-width:1.2;stroke-linecap:butt;stroke-linejoin:miter;stroke:rgb(0%,0%,0%);stroke-opacity:1;stroke-miterlimit:10;" d="M 70.957031 160.707031 L 91.785156 168.261719 "/>
</g>
</svg>

<svg xmlns="http://www.w3.org/2000/svg" xmlns:xlink="http://www.w3.org/1999/xlink" width="300pt" height="300pt" viewBox="0 0 300 300"><defs><symbol overflow="visible"><path d="M.547 1.938V-7.75h5.5v9.688zm.625-.61h4.266v-8.47H1.171zm0 0"/></symbol><symbol overflow="visible" id="a"><path d="M4.328-7.28c-.78 0-1.406.296-1.875.89-.46.585-.687 1.382-.687 2.39 0 1.012.226 1.813.687 2.406.47.586 1.094.875 1.875.875.79 0 1.414-.288 1.875-.874.457-.593.688-1.394.688-2.406 0-1.008-.23-1.805-.687-2.39-.46-.594-1.086-.89-1.875-.89zm0-.892c1.125 0 2.024.383 2.703 1.14C7.708-6.28 8.048-5.27 8.048-4c0 1.262-.34 2.273-1.016 3.03C6.353-.22 5.454.157 4.33.157S2.3-.22 1.625-.97c-.668-.75-1-1.757-1-3.03 0-1.27.332-2.28 1-3.03.676-.76 1.578-1.142 2.703-1.142zm0 0"/></symbol><symbol overflow="visible" id="b"><path d="M1.078-8.016h1.47l3.546 6.704v-6.704h1.062V0H5.688L2.124-6.703V0H1.078zm0 0"/></symbol><symbol overflow="visible" id="c"><path d="M1.078-8.016h1.094v3.282H6.11v-3.282h1.077V0H6.11v-3.813H2.17V0H1.078zm0 0"/></symbol></defs><g><path fill="#fff" d="M0 0h300v300H0z"/><path d="M160.598 149.117l13.02 4.72" stroke-width="1.2" stroke="#f00" stroke-miterlimit="10" fill="none"/><path d="M173.617 153.836l13.02 4.723M139.402 166.945L150 158.03" stroke-width="1.2" stroke="#000" stroke-miterlimit="10" fill="none"/><path d="M150 158.03l10.598-8.913" stroke-width="1.2" stroke="#f00" stroke-miterlimit="10" fill="none"/><path d="M156.598 142.617h9v13h-9zm0 0" fill="#fff"/><use xlink:href="#a" x="156.598" y="152.519" fill="#f00"/><path d="M186.637 158.56l4.84 27.268M193.535 160.145l3.875 21.816M207.832 140.73l-21.195 17.83M191.477 185.828l26.04 9.442M191.477 185.828l-21.196 17.828M217.516 195.27l21.195-17.83M215.44 188.5l16.958-14.262M238.71 177.44l-4.84-27.268M238.71 177.44l26.04 9.443M233.87 150.172l-26.038-9.442M229.043 155.352l-20.828-7.55M207.832 140.73l-2.422-13.636" stroke-width="1.2" stroke="#000" stroke-miterlimit="10" fill="none"/><path d="M205.41 127.094l-2.422-13.637M202.988 113.457l-12.453-6.055" stroke-width="1.2" stroke="#00f" stroke-miterlimit="10" fill="none"/><path d="M190.535 107.402l-12.453-6.054M222.207 93.512l-9.61 9.972" stroke-width="1.2" stroke="#000" stroke-miterlimit="10" fill="none"/><path d="M212.598 103.484l-9.61 9.973" stroke-width="1.2" stroke="#00f" stroke-miterlimit="10" fill="none"/><path d="M198.988 106.957h8v13h-8zm0 0" fill="#fff"/><use xlink:href="#b" x="198.988" y="116.858" fill="#00f"/><path d="M178.082 101.348l-12.22 6.515" stroke-width="1.2" stroke="#000" stroke-miterlimit="10" fill="none"/><path d="M165.863 107.863l-12.222 6.516" stroke-width="1.2" stroke="#f00" stroke-miterlimit="10" fill="none"/><path d="M178.082 101.348l3.82-27.434M184.918 99.504l3.06-21.945" stroke-width="1.2" stroke="#000" stroke-miterlimit="10" fill="none"/><path d="M136.64 107.88h17v13h-17zm0 0" fill="#fff"/><g fill="#f00"><use xlink:href="#c" x="136.641" y="117.78"/><use xlink:href="#a" x="144.665" y="117.78"/></g><path d="M181.902 73.914l13.637-2.422" stroke-width="1.2" stroke="#000" stroke-miterlimit="10" fill="none"/><path d="M195.54 71.492l13.632-2.418M209.172 69.074l6.52 12.22" stroke-width="1.2" stroke="#00f" stroke-miterlimit="10" fill="none"/><path d="M215.69 81.293l6.517 12.22" stroke-width="1.2" stroke="#000" stroke-miterlimit="10" fill="none"/><path d="M201.172 62.574h17v13h-17zm0 0" fill="#fff"/><g fill="#00f"><use xlink:href="#b" x="201.172" y="72.476"/><use xlink:href="#c" x="209.155" y="72.476"/></g><path d="M221.758 96.738l13.715 1.91" stroke-width="1.2" stroke="#000" stroke-miterlimit="10" fill="none"/><path d="M235.473 98.648l13.714 1.915" stroke-width="1.2" stroke="#f00" stroke-miterlimit="10" fill="none"/><path d="M222.656 90.285l13.715 1.91" stroke-width="1.2" stroke="#000" stroke-miterlimit="10" fill="none"/><path d="M236.37 92.195l13.716 1.91" stroke-width="1.2" stroke="#f00" stroke-miterlimit="10" fill="none"/><path d="M245.637 90.832h9v13h-9zm0 0" fill="#fff"/><use xlink:href="#a" x="245.637" y="100.733" fill="#f00"/><path d="M167.074 204.227l2.422 13.636" stroke-width="1.2" stroke="#000" stroke-miterlimit="10" fill="none"/><path d="M169.496 217.863l2.422 13.633" stroke-width="1.2" stroke="#f00" stroke-miterlimit="10" fill="none"/><path d="M173.492 203.086l2.418 13.637" stroke-width="1.2" stroke="#000" stroke-miterlimit="10" fill="none"/><path d="M175.91 216.723l2.422 13.636" stroke-width="1.2" stroke="#f00" stroke-miterlimit="10" fill="none"/><path d="M170.28 203.656l-26.034-9.44" stroke-width="1.2" stroke="#000" stroke-miterlimit="10" fill="none"/><path d="M171.125 224.426h9v13h-9zm0 0" fill="#fff"/><use xlink:href="#a" x="171.125" y="234.327" fill="#f00"/><path d="M144.246 194.215l-10.6 8.914" stroke-width="1.2" stroke="#000" stroke-miterlimit="10" fill="none"/><path d="M133.645 203.13l-10.598 8.913" stroke-width="1.2" stroke="#f00" stroke-miterlimit="10" fill="none"/><path d="M144.246 194.215l-4.844-27.27M150.176 190.348l-3.87-21.817" stroke-width="1.2" stroke="#000" stroke-miterlimit="10" fill="none"/><path d="M106.047 205.543h17v13h-17zm0 0" fill="#fff"/><g fill="#f00"><use xlink:href="#c" x="106.047" y="215.444"/><use xlink:href="#a" x="114.071" y="215.444"/></g><path d="M139.402 166.945l-26.04-9.44M113.363 157.504l-4.84-27.274M106.465 155.914l-3.875-21.816M92.168 175.332l21.195-17.828M108.523 130.23l-26.04-9.44M82.484 120.79l-2.42-13.634" stroke-width="1.2" stroke="#000" stroke-miterlimit="10" fill="none"/><path d="M80.063 107.156L77.64 93.52" stroke-width="1.2" stroke="#f00" stroke-miterlimit="10" fill="none"/><path d="M82.484 120.79L61.29 138.62M84.56 127.563L67.6 141.822" stroke-width="1.2" stroke="#000" stroke-miterlimit="10" fill="none"/><path d="M69.64 87.02h17v13h-17zm0 0" fill="#fff"/><g fill="#f00"><use xlink:href="#c" x="69.641" y="96.921"/><use xlink:href="#a" x="77.665" y="96.921"/></g><path d="M61.29 138.62L48.27 133.9" stroke-width="1.2" stroke="#000" stroke-miterlimit="10" fill="none"/><path d="M48.27 133.898l-13.02-4.722" stroke-width="1.2" stroke="#f00" stroke-miterlimit="10" fill="none"/><path d="M61.29 138.62l4.84 27.27" stroke-width="1.2" stroke="#000" stroke-miterlimit="10" fill="none"/><path d="M18.25 122.676h17v13h-17zm0 0" fill="#fff"/><g fill="#f00"><use xlink:href="#c" x="18.25" y="132.577"/><use xlink:href="#a" x="26.274" y="132.577"/></g><path d="M66.13 165.89l26.038 9.442M70.957 160.707l20.828 7.555" stroke-width="1.2" stroke="#000" stroke-miterlimit="10" fill="none"/></g></svg>
